CSETWebApi/CSETWeb_Api/CSETWeb_ApiCore/Diagram/src/main/webapp/img/lib/atlassian/Jira_Logo.svg

<svg xmlns="http://www.w3.org/2000/svg" xmlns:xlink="http://www.w3.org/1999/xlink" contentScriptType="text/ecmascript" width="72.2" baseProfile="full" zoomAndPan="magnify" contentStyleType="text/css" height="72.4" viewBox="-0.1 -0.2 72.1 72.2" preserveAspectRatio="none meet"><defs><linearGradient x1="53.96" y1="17.29" x2="39.25" gradientUnits="userSpaceOnUse" y2="32.46" id="A"><stop offset=".18" stop-color="#0052cc"/><stop offset="1" stop-color="#2684ff"/></linearGradient><linearGradient x1="37.83" y1="34.62" x2="20.82" xlink:href="#A" y2="51.16" id="B"/></defs><path d="M68.8 0H34.23a15.61 15.61 0 0 0 15.61 15.61h6.37v6.15a15.61 15.61 0 0 0 15.6 15.6V3a3 3 0 0 0-3-3z" fill="#2684ff"/><path d="M51.7 17.23H17.12a15.61 15.61 0 0 0 15.6 15.6h6.37V39A15.61 15.61 0 0 0 54.7 54.59V20.23a3 3 0 0 0-3-3z" fill="url(#A)"/><path d="M34.58 34.45H0a15.61 15.61 0 0 0 15.61 15.61H22v6.15a15.61 15.61 0 0 0 15.58 15.6V37.45a3 3 0 0 0-3-3z" fill="url(#B)"/></svg>

<?xml version="1.0" standalone="no"?>
<svg contentScriptType="text/ecmascript" width="72.2" xmlns:xlink="http://www.w3.org/1999/xlink" baseProfile="full"
    zoomAndPan="magnify" contentStyleType="text/css" height="72.4" viewBox="-0.1 -0.2 72.1 72.2" preserveAspectRatio="none meet"
    xmlns="http://www.w3.org/2000/svg" version="1.0">
    <defs>
        <style>.cls-1{fill:#253858;}.cls-2{fill:#2684ff;}.cls-3{fill:url(#New_Gradient_Swatch_1);}.cls-4{fill:url(#New_Gradient_Swatch_1-2);}</style>
        <linearGradient x1="53.96" y1="17.29" x2="39.25" gradientUnits="userSpaceOnUse" y2="32.46" id="New_Gradient_Swatch_1">
            <stop offset="0.18" stop-color="#0052cc"/>
            <stop offset="1" stop-color="#2684ff"/>
        </linearGradient>
        <linearGradient x1="37.83" y1="34.62" x2="20.82" xlink:href="#New_Gradient_Swatch_1"
            y2="51.16" id="New_Gradient_Swatch_1-2"/>
    </defs>
    <title>Jira-blue</title>
    <path class="cls-2" d=
        "M68.81,0H34.23A15.61,15.61,0,0,0,49.84,15.61h6.37v6.15A15.61,15.61,0,0,0,71.81,37.36V3A3,3,0,0,0,68.81,0Z"/>
    <path class="cls-3" d=
        "M51.7,17.23H17.12A15.61,15.61,0,0,0,32.72,32.83h6.37V39A15.61,15.61,0,0,0,54.7,54.59V20.23A3,3,0,0,0,51.7,17.23Z"/>
    <path class="cls-4" d=
        "M34.58,34.45H0A15.61,15.61,0,0,0,15.61,50.06H22v6.15A15.61,15.61,0,0,0,37.58,71.81V37.45A3,3,0,0,0,34.58,34.45Z"/>
</svg>
